mg_custom_nodes/sumitchatterjee13_nuke-nodes-comfyui_20260827/luts/ailog_to_linear_65.cube
# ailog to Linear - 3D LUT
# Generated by ailog-to-linear-hdr
# 
#
# Features:
#   - True black (0,0,0 -> 0,0,0)
#   - Full HDR range (~470 peak)
#   - No negative values
#
LUT_3D_SIZE 5
DOMAIN_MIN 0.0 0.0 0.0
DOMAIN_MAX 1.0 1.0 1.0
0.0000000000 0.0000000000 0.0000000000
0.1433912268 0.0000000000 0.0000000000
2.2230200790 0.0000000000 0.0000000000
32.3842528143 0.0000000000 0.0000000000
469.8180569961 0.0000000000 0.0000000000
0.0000000000 0.1433912268 0.0000000000
0.1433912268 0.1433912268 0.0000000000
2.2230200790 0.1433912268 0.0000000000
32.3842528143 0.1433912268 0.0000000000
469.8180569961 0.1433912268 0.0000000000
0.0000000000 2.2230200790 0.0000000000
0.1433912268 2.2230200790 0.0000000000
2.2230200790 2.2230200790 0.0000000000
32.3842528143 2.2230200790 0.0000000000
469.8180569961 2.2230200790 0.0000000000
0.0000000000 32.3842528143 0.0000000000
0.1433912268 32.3842528143 0.0000000000
2.2230200790 32.3842528143 0.0000000000
32.3842528143 32.3842528143 0.0000000000
469.8180569961 32.3842528143 0.0000000000
0.0000000000 469.8180569961 0.0000000000
0.1433912268 469.8180569961 0.0000000000
2.2230200790 469.8180569961 0.0000000000
32.3842528143 469.8180569961 0.0000000000
469.8180569961 469.8180569961 0.0000000000
0.0000000000 0.0000000000 0.1433912268
0.1433912268 0.0000000000 0.1433912268
2.2230200790 0.0000000000 0.1433912268
32.3842528143 0.0000000000 0.1433912268
469.8180569961 0.0000000000 0.1433912268
0.0000000000 0.1433912268 0.1433912268
0.1253342307 0.1253342307 0.1253342307
2.2049630829 0.1253342307 0.1253342307
32.3661958182 0.1253342307 0.1253342307
469.8000000000 0.1253342307 0.1253342307
0.0000000000 2.2230200790 0.1433912268
0.1253342307 2.2049630829 0.1253342307
2.2049630829 2.2049630829 0.1253342307
32.3661958182 2.2049630829 0.1253342307
469.8000000000 2.2049630829 0.1253342307
0.0000000000 32.3842528143 0.1433912268
0.1253342307 32.3661958182 0.1253342307
2.2049630829 32.3661958182 0.1253342307
32.3661958182 32.3661958182 0.1253342307
469.8000000000 32.3661958182 0.1253342307
0.0000000000 469.8180569961 0.1433912268
0.1253342307 469.8000000000 0.1253342307
2.2049630829 469.8000000000 0.1253342307
32.3661958182 469.8000000000 0.1253342307
469.8000000000 469.8000000000 0.1253342307
0.0000000000 0.0000000000 2.2230200790
0.1433912268 0.0000000000 2.2230200790
2.2230200790 0.0000000000 2.2230200790
32.3842528143 0.0000000000 2.2230200790
469.8180569961 0.0000000000 2.2230200790
0.0000000000 0.1433912268 2.2230200790
0.1253342307 0.1253342307 2.2049630829
2.2049630829 0.1253342307 2.2049630829
32.3661958182 0.1253342307 2.2049630829
469.8000000000 0.1253342307 2.2049630829
0.0000000000 2.2230200790 2.2230200790
0.1253342307 2.2049630829 2.2049630829
2.2049630829 2.2049630829 2.2049630829
32.3661958182 2.2049630829 2.2049630829
469.8000000000 2.2049630829 2.2049630829
0.0000000000 32.3842528143 2.2230200790
0.1253342307 32.3661958182 2.2049630829
2.2049630829 32.3661958182 2.2049630829
32.3661958182 32.3661958182 2.2049630829
469.8000000000 32.3661958182 2.2049630829
0.0000000000 469.8180569961 2.2230200790
0.1253342307 469.8000000000 2.2049630829
2.2049630829 469.8000000000 2.2049630829
32.3661958182 469.8000000000 2.2049630829
469.8000000000 469.8000000000 2.2049630829
0.0000000000 0.0000000000 32.3842528143
0.1433912268 0.0000000000 32.3842528143
2.2230200790 0.0000000000 32.3842528143
32.3842528143 0.0000000000 32.3842528143
469.8180569961 0.0000000000 32.3842528143
0.0000000000 0.1433912268 32.3842528143
0.1253342307 0.1253342307 32.3661958182
2.2049630829 0.1253342307 32.3661958182
32.3661958182 0.1253342307 32.3661958182
469.8000000000 0.1253342307 32.3661958182
0.0000000000 2.2230200790 32.3842528143
0.1253342307 2.2049630829 32.3661958182
2.2049630829 2.2049630829 32.3661958182
32.3661958182 2.2049630829 32.3661958182
469.8000000000 2.2049630829 32.3661958182
0.0000000000 32.3842528143 32.3842528143
0.1253342307 32.3661958182 32.3661958182
2.2049630829 32.3661958182 32.3661958182
32.3661958182 32.3661958182 32.3661958182
469.8000000000 32.3661958182 32.3661958182
0.0000000000 469.8180569961 32.3842528143
0.1253342307 469.8000000000 32.3661958182
2.2049630829 469.8000000000 32.3661958182
32.3661958182 469.8000000000 32.3661958182
469.8000000000 469.8000000000 32.3661958182
0.0000000000 0.0000000000 469.8180569961
0.1433912268 0.0000000000 469.8180569961
2.2230200790 0.0000000000 469.8180569961
32.3842528143 0.0000000000 469.8180569961
469.8180569961 0.0000000000 469.8180569961
0.0000000000 0.1433912268 469.8180569961
0.1253342307 0.1253342307 469.8000000000
2.2049630829 0.1253342307 469.8000000000
32.3661958182 0.1253342307 469.8000000000
469.8000000000 0.1253342307 469.8000000000
0.0000000000 2.2230200790 469.8180569961
0.1253342307 2.2049630829 469.8000000000
2.2049630829 2.2049630829 469.8000000000
32.3661958182 2.2049630829 469.8000000000
469.8000000000 2.2049630829 469.8000000000
0.0000000000 32.3842528143 469.8180569961
0.1253342307 32.3661958182 469.8000000000
2.2049630829 32.3661958182 469.8000000000
32.3661958182 32.3661958182 469.8000000000
469.8000000000 32.3661958182 469.8000000000
0.0000000000 469.8180569961 469.8180569961
0.1253342307 469.8000000000 469.8000000000
2.2049630829 469.8000000000 469.8000000000
32.3661958182 469.8000000000 469.8000000000
469.8000000000 469.8000000000 469.8000000000
