mg_custom_nodes/sumitchatterjee13_nuke-nodes-comfyui_20260827/luts/ailog_to_linear_65.cube
# ailog to Linear - 3D LUT
# Generated by ailog-to-linear-hdr
# 
#
# Features:
#   - True black (0,0,0 -> 0,0,0)
#   - Full HDR range (~470 peak)
#   - No negative values
#
LUT_3D_SIZE 65
DOMAIN_MIN 0.0 0.0 0.0
DOMAIN_MAX 1.0 1.0 1.0
0.0000000000 0.0000000000 0.0000000000
0.0019319188 0.0000000000 0.0000000000
0.0042153099 0.0000000000 0.0000000000
0.0069141165 0.0000000000 0.0000000000
0.0101039148 0.0000000000 0.0000000000
0.0138740304 0.0000000000 0.0000000000
0.0183300401 0.0000000000 0.0000000000
0.0235967279 0.0000000000 0.0000000000
0.0298215799 0.0000000000 0.0000000000
0.0371789141 0.0000000000 0.0000000000
0.0458747621 0.0000000000 0.0000000000
0.0561526385 0.0000000000 0.0000000000
0.0683003605 0.0000000000 0.0000000000
0.0826581076 0.0000000000 0.0000000000
0.0996279478 0.0000000000 0.0000000000
0.1196850970 0.0000000000 0.0000000000
0.1433912268 0.0000000000 0.0000000000
0.1714101933 0.0000000000 0.0000000000
0.2045266272 0.0000000000 0.0000000000
0.2436679067 0.0000000000 0.0000000000
0.2899301270 0.0000000000 0.0000000000
0.3446087948 0.0000000000 0.0000000000
0.4092351076 0.0000000000 0.0000000000
0.4856188323 0.0000000000 0.0000000000
0.5758989850 0.0000000000 0.0000000000
0.6826037316 0.0000000000 0.0000000000
0.8087211847 0.0000000000 0.0000000000
0.9577830822 0.0000000000 0.0000000000
1.1339636879 0.0000000000 0.0000000000
1.3421966859 0.0000000000 0.0000000000
1.5883133417 0.0000000000 0.0000000000
1.8792057979 0.0000000000 0.0000000000
2.2230200790 0.0000000000 0.0000000000
2.6293842089 0.0000000000 0.0000000000
3.1096778301 0.0000000000 0.0000000000
3.6773508740 0.0000000000 0.0000000000
4.3483002070 0.0000000000 0.0000000000
5.1413147993 0.0000000000 0.0000000000
6.0786018829 0.0000000000 0.0000000000
7.1864088333 0.0000000000 0.0000000000
8.4957581893 0.0000000000 0.0000000000
10.0433163946 0.0000000000 0.0000000000
11.8724205891 0.0000000000 0.0000000000
14.0342922024 0.0000000000 0.0000000000
16.5894713369 0.0000000000 0.0000000000
19.6095121058 0.0000000000 0.0000000000
23.1789864031 0.0000000000 0.0000000000
27.3978522181 0.0000000000 0.0000000000
32.3842528143 0.0000000000 0.0000000000
38.2778251620 0.0000000000 0.0000000000
45.2436102705 0.0000000000 0.0000000000
53.4766749237 0.0000000000 0.0000000000
63.2075742451 0.0000000000 0.0000000000
74.7088080614 0.0000000000 0.0000000000
88.3024518686 0.0000000000 0.0000000000
104.3691760922 0.0000000000 0.0000000000
123.3589062142 0.0000000000 0.0000000000
145.8034222894 0.0000000000 0.0000000000
172.3312506791 0.0000000000 0.0000000000
203.6852650281 0.0000000000 0.0000000000
240.7434893711 0.0000000000 0.0000000000
284.5436859317 0.0000000000 0.0000000000
336.3124161601 0.0000000000 0.0000000000
397.4993888200 0.0000000000 0.0000000000
469.8180569961 0.0000000000 0.0000000000
0.0000000000 0.0019319188 0.0000000000
0.0019319188 0.0019319188 0.0000000000
0.0042153099 0.0019319188 0.0000000000
0.0069141165 0.0019319188 0.0000000000
0.0101039148 0.0019319188 0.0000000000
0.0138740304 0.0019319188 0.0000000000
0.0183300401 0.0019319188 0.0000000000
0.0235967279 0.0019319188 0.0000000000
0.0298215799 0.0019319188 0.0000000000
0.0371789141 0.0019319188 0.0000000000
0.0458747621 0.0019319188 0.0000000000
0.0561526385 0.0019319188 0.0000000000
0.0683003605 0.0019319188 0.0000000000
0.0826581076 0.0019319188 0.0000000000
0.0996279478 0.0019319188 0.0000000000
0.1196850970 0.0019319188 0.0000000000
0.1433912268 0.0019319188 0.0000000000
0.1714101933 0.0019319188 0.0000000000
0.2045266272 0.0019319188 0.0000000000
0.2436679067 0.0019319188 0.0000000000
0.2899301270 0.0019319188 0.0000000000
0.3446087948 0.0019319188 0.0000000000
0.4092351076 0.0019319188 0.0000000000
0.4856188323 0.0019319188 0.0000000000
0.5758989850 0.0019319188 0.0000000000
0.6826037316 0.0019319188 0.0000000000
0.8087211847 0.0019319188 0.0000000000
0.9577830822 0.0019319188 0.0000000000
1.1339636879 0.0019319188 0.0000000000
1.3421966859 0.0019319188 0.0000000000
1.5883133417 0.0019319188 0.0000000000
1.8792057979 0.0019319188 0.0000000000
2.2230200790 0.0019319188 0.0000000000
2.6293842089 0.0019319188 0.0000000000
3.1096778301 0.0019319188 0.0000000000
3.6773508740 0.0019319188 0.0000000000
4.3483002070 0.0019319188 0.0000000000
5.1413147993 0.0019319188 0.0000000000
6.0786018829 0.0019319188 0.0000000000
7.1864088333 0.0019319188 0.0000000000
8.4957581893 0.0019319188 0.0000000000
10.0433163946 0.0019319188 0.0000000000
11.8724205891 0.0019319188 0.0000000000
14.0342922024 0.0019319188 0.0000000000
16.5894713369 0.0019319188 0.0000000000
19.6095121058 0.0019319188 0.0000000000
23.1789864031 0.0019319188 0.0000000000
27.3978522181 0.0019319188 0.0000000000
32.3842528143 0.0019319188 0.0000000000
38.2778251620 0.0019319188 0.0000000000
45.2436102705 0.0019319188 0.0000000000
53.4766749237 0.0019319188 0.0000000000
63.2075742451 0.0019319188 0.0000000000
74.7088080614 0.0019319188 0.0000000000
88.3024518686 0.0019319188 0.0000000000
104.3691760922 0.0019319188 0.0000000000
123.3589062142 0.0019319188 0.0000000000
145.8034222894 0.0019319188 0.0000000000
172.3312506791 0.0019319188 0.0000000000
203.6852650281 0.0019319188 0.0000000000
240.7434893711 0.0019319188 0.0000000000
284.5436859317 0.0019319188 0.0000000000
336.3124161601 0.0019319188 0.0000000000
397.4993888200 0.0019319188 0.0000000000
469.8180569961 0.0019319188 0.0000000000
0.0000000000 0.0042153099 0.0000000000
0.0019319188 0.0042153099 0.0000000000
0.0042153099 0.0042153099 0.0000000000
0.0069141165 0.0042153099 0.0000000000
0.0101039148 0.0042153099 0.0000000000
0.0138740304 0.0042153099 0.0000000000
0.0183300401 0.0042153099 0.0000000000
0.0235967279 0.0042153099 0.0000000000
0.0298215799 0.0042153099 0.0000000000
0.0371789141 0.0042153099 0.0000000000
0.0458747621 0.0042153099 0.0000000000
0.0561526385 0.0042153099 0.0000000000
0.0683003605 0.0042153099 0.0000000000
0.0826581076 0.0042153099 0.0000000000
0.0996279478 0.0042153099 0.0000000000
0.1196850970 0.0042153099 0.0000000000
0.1433912268 0.0042153099 0.0000000000
0.1714101933 0.0042153099 0.0000000000
0.2045266272 0.0042153099 0.0000000000
0.2436679067 0.0042153099 0.0000000000
0.2899301270 0.0042153099 0.0000000000
0.3446087948 0.0042153099 0.0000000000
0.4092351076 0.0042153099 0.0000000000
0.4856188323 0.0042153099 0.0000000000
0.5758989850 0.0042153099 0.0000000000
0.6826037316 0.0042153099 0.0000000000
0.8087211847 0.0042153099 0.0000000000
0.9577830822 0.0042153099 0.0000000000
1.1339636879 0.0042153099 0.0000000000
1.3421966859 0.0042153099 0.0000000000
1.5883133417 0.0042153099 0.0000000000
1.8792057979 0.0042153099 0.0000000000
2.2230200790 0.0042153099 0.0000000000
2.6293842089 0.0042153099 0.0000000000
3.1096778301 0.0042153099 0.0000000000
3.6773508740 0.0042153099 0.0000000000
4.3483002070 0.0042153099 0.0000000000
5.1413147993 0.0042153099 0.0000000000
6.0786018829 0.0042153099 0.0000000000
7.1864088333 0.0042153099 0.0000000000
8.4957581893 0.0042153099 0.0000000000
10.0433163946 0.0042153099 0.0000000000
11.8724205891 0.0042153099 0.0000000000
14.0342922024 0.0042153099 0.0000000000
16.5894713369 0.0042153099 0.0000000000
19.6095121058 0.0042153099 0.0000000000
23.1789864031 0.0042153099 0.0000000000
27.3978522181 0.0042153099 0.0000000000
32.3842528143 0.0042153099 0.0000000000
38.2778251620 0.0042153099 0.0000000000
45.2436102705 0.0042153099 0.0000000000
53.4766749237 0.0042153099 0.0000000000
63.2075742451 0.0042153099 0.0000000000
74.7088080614 0.0042153099 0.0000000000
88.3024518686 0.0042153099 0.0000000000
104.3691760922 0.0042153099 0.0000000000
123.3589062142 0.0042153099 0.0000000000
145.8034222894 0.0042153099 0.0000000000
172.3312506791 0.0042153099 0.0000000000
203.6852650281 0.0042153099 0.0000000000
240.7434893711 0.0042153099 0.0000000000
284.5436859317 0.0042153099 0.0000000000
336.3124161601 0.0042153099 0.0000000000
397.4993888200 0.0042153099 0.0000000000
469.8180569961 0.0042153099 0.0000000000
0.0000000000 0.0069141165 0.0000000000
0.0019319188 0.0069141165 0.0000000000
0.0042153099 0.0069141165 0.0000000000
0.0069141165 0.0069141165 0.0000000000
0.0101039148 0.0069141165 0.0000000000
0.0138740304 0.0069141165 0.0000000000
0.0183300401 0.0069141165 0.0000000000
0.0235967279 0.0069141165 0.0000000000
0.0298215799 0.0069141165 0.0000000000
0.0371789141 0.0069141165 0.0000000000
0.0458747621 0.0069141165 0.0000000000
0.0561526385 0.0069141165 0.0000000000
0.0683003605 0.0069141165 0.0000000000
0.0826581076 0.0069141165 0.0000000000
0.0996279478 0.0069141165 0.0000000000
0.1196850970 0.0069141165 0.0000000000
0.1433912268 0.0069141165 0.0000000000
0.1714101933 0.0069141165 0.0000000000
0.2045266272 0.0069141165 0.0000000000
0.2436679067 0.0069141165 0.0000000000
0.2899301270 0.0069141165 0.0000000000
0.3446087948 0.0069141165 0.0000000000
0.4092351076 0.0069141165 0.0000000000
0.4856188323 0.0069141165 0.0000000000
0.5758989850 0.0069141165 0.0000000000
0.6826037316 0.0069141165 0.0000000000
0.8087211847 0.0069141165 0.0000000000
0.9577830822 0.0069141165 0.0000000000
1.1339636879 0.0069141165 0.0000000000
1.3421966859 0.0069141165 0.0000000000
1.5883133417 0.0069141165 0.0000000000
1.8792057979 0.0069141165 0.0000000000
2.2230200790 0.0069141165 0.0000000000
2.6293842089 0.0069141165 0.0000000000
3.1096778301 0.0069141165 0.0000000000
3.6773508740 0.0069141165 0.0000000000
4.3483002070 0.0069141165 0.0000000000
5.1413147993 0.0069141165 0.0000000000
6.0786018829 0.0069141165 0.0000000000
7.1864088333 0.0069141165 0.0000000000
8.4957581893 0.0069141165 0.0000000000
10.0433163946 0.0069141165 0.0000000000
11.8724205891 0.0069141165 0.0000000000
14.0342922024 0.0069141165 0.0000000000
16.5894713369 0.0069141165 0.0000000000
19.6095121058 0.0069141165 0.0000000000
23.1789864031 0.0069141165 0.0000000000
27.3978522181 0.0069141165 0.0000000000
32.3842528143 0.0069141165 0.0000000000
38.2778251620 0.0069141165 0.0000000000
45.2436102705 0.0069141165 0.0000000000
53.4766749237 0.0069141165 0.0000000000
63.2075742451 0.0069141165 0.0000000000
74.7088080614 0.0069141165 0.0000000000
88.3024518686 0.0069141165 0.0000000000
104.3691760922 0.0069141165 0.0000000000
123.3589062142 0.0069141165 0.0000000000
145.8034222894 0.0069141165 0.0000000000
172.3312506791 0.0069141165 0.0000000000
203.6852650281 0.0069141165 0.0000000000
240.7434893711 0.0069141165 0.0000000000
284.5436859317 0.0069141165 0.0000000000
336.3124161601 0.0069141165 0.0000000000
397.4993888200 0.0069141165 0.0000000000
469.8180569961 0.0069141165 0.0000000000
0.0000000000 0.0101039148 0.0000000000
0.0019319188 0.0101039148 0.0000000000
0.0042153099 0.0101039148 0.0000000000
0.0069141165 0.0101039148 0.0000000000
0.0101039148 0.0101039148 0.0000000000
0.0138740304 0.0101039148 0.0000000000
0.0183300401 0.0101039148 0.0000000000
0.0235967279 0.0101039148 0.0000000000
0.0298215799 0.0101039148 0.0000000000
0.0371789141 0.0101039148 0.0000000000
0.0458747621 0.0101039148 0.0000000000
0.0561526385 0.0101039148 0.0000000000
0.0683003605 0.0101039148 0.0000000000
0.0826581076 0.0101039148 0.0000000000
0.0996279478 0.0101039148 0.0000000000
0.1196850970 0.0101039148 0.0000000000
0.1433912268 0.0101039148 0.0000000000
0.1714101933 0.0101039148 0.0000000000
0.2045266272 0.0101039148 0.0000000000
0.2436679067 0.0101039148 0.0000000000
0.2899301270 0.0101039148 0.0000000000
0.3446087948 0.0101039148 0.0000000000
0.4092351076 0.0101039148 0.0000000000
0.4856188323 0.0101039148 0.0000000000
0.5758989850 0.0101039148 0.0000000000
0.6826037316 0.0101039148 0.0000000000
0.8087211847 0.0101039148 0.0000000000
0.9577830822 0.0101039148 0.0000000000
1.1339636879 0.0101039148 0.0000000000
1.3421966859 0.0101039148 0.0000000000
1.5883133417 0.0101039148 0.0000000000
1.8792057979 0.0101039148 0.0000000000
2.2230200790 0.0101039148 0.0000000000
2.6293842089 0.0101039148 0.0000000000
3.1096778301 0.0101039148 0.0000000000
3.6773508740 0.0101039148 0.0000000000
4.3483002070 0.0101039148 0.0000000000
5.1413147993 0.0101039148 0.0000000000
6.0786018829 0.0101039148 0.0000000000
7.1864088333 0.0101039148 0.0000000000
8.4957581893 0.0101039148 0.0000000000
10.0433163946 0.0101039148 0.0000000000
11.8724205891 0.0101039148 0.0000000000
14.0342922024 0.0101039148 0.0000000000
16.5894713369 0.0101039148 0.0000000000
19.6095121058 0.0101039148 0.0000000000
23.1789864031 0.0101039148 0.0000000000
27.3978522181 0.0101039148 0.0000000000
32.3842528143 0.0101039148 0.0000000000
38.2778251620 0.0101039148 0.0000000000
45.2436102705 0.0101039148 0.0000000000
53.4766749237 0.0101039148 0.0000000000
63.2075742451 0.0101039148 0.0000000000
74.7088080614 0.0101039148 0.0000000000
88.3024518686 0.0101039148 0.0000000000
104.3691760922 0.0101039148 0.0000000000
123.3589062142 0.0101039148 0.0000000000
145.8034222894 0.0101039148 0.0000000000
172.3312506791 0.0101039148 0.0000000000
203.6852650281 0.0101039148 0.0000000000
240.7434893711 0.0101039148 0.0000000000
284.5436859317 0.0101039148 0.0000000000
336.3124161601 0.0101039148 0.0000000000
397.4993888200 0.0101039148 0.0000000000
469.8180569961 0.0101039148 0.0000000000
0.0000000000 0.0138740304 0.0000000000
0.0019319188 0.0138740304 0.0000000000
0.0042153099 0.0138740304 0.0000000000
0.0069141165 0.0138740304 0.0000000000
0.0101039148 0.0138740304 0.0000000000
0.0138740304 0.0138740304 0.0000000000
0.0183300401 0.0138740304 0.0000000000
0.0235967279 0.0138740304 0.0000000000
0.0298215799 0.0138740304 0.0000000000
0.0371789141 0.0138740304 0.0000000000
0.0458747621 0.0138740304 0.0000000000
0.0561526385 0.0138740304 0.0000000000
0.0683003605 0.0138740304 0.0000000000
0.0826581076 0.0138740304 0.0000000000
0.0996279478 0.0138740304 0.0000000000
0.1196850970 0.0138740304 0.0000000000
0.1433912268 0.0138740304 0.0000000000
0.1714101933 0.0138740304 0.0000000000
0.2045266272 0.0138740304 0.0000000000
0.2436679067 0.0138740304 0.0000000000
0.2899301270 0.0138740304 0.0000000000
0.3446087948 0.0138740304 0.0000000000
0.4092351076 0.0138740304 0.0000000000
0.4856188323 0.0138740304 0.0000000000
0.5758989850 0.0138740304 0.0000000000
0.6826037316 0.0138740304 0.0000000000
0.8087211847 0.0138740304 0.0000000000
0.9577830822 0.0138740304 0.0000000000
1.1339636879 0.0138740304 0.0000000000
1.3421966859 0.0138740304 0.0000000000
1.5883133417 0.0138740304 0.0000000000
1.8792057979 0.0138740304 0.0000000000
2.2230200790 0.0138740304 0.0000000000
2.6293842089 0.0138740304 0.0000000000
3.1096778301 0.0138740304 0.0000000000
3.6773508740 0.0138740304 0.0000000000
4.3483002070 0.0138740304 0.0000000000
5.1413147993 0.0138740304 0.0000000000
6.0786018829 0.0138740304 0.0000000000
7.1864088333 0.0138740304 0.0000000000
8.4957581893 0.0138740304 0.0000000000
10.0433163946 0.0138740304 0.0000000000
11.8724205891 0.0138740304 0.0000000000
14.0342922024 0.0138740304 0.0000000000
16.5894713369 0.0138740304 0.0000000000
19.6095121058 0.0138740304 0.0000000000
23.1789864031 0.0138740304 0.0000000000
27.3978522181 0.0138740304 0.0000000000
32.3842528143 0.0138740304 0.0000000000
38.2778251620 0.0138740304 0.0000000000
45.2436102705 0.0138740304 0.0000000000
53.4766749237 0.0138740304 0.0000000000
63.2075742451 0.0138740304 0.0000000000
74.7088080614 0.0138740304 0.0000000000
88.3024518686 0.0138740304 0.0000000000
104.3691760922 0.0138740304 0.0000000000
123.3589062142 0.0138740304 0.0000000000
145.8034222894 0.0138740304 0.0000000000
172.3312506791 0.0138740304 0.0000000000
203.6852650281 0.0138740304 0.0000000000
240.7434893711 0.0138740304 0.0000000000
284.5436859317 0.0138740304 0.0000000000
336.3124161601 0.0138740304 0.0000000000
397.4993888200 0.0138740304 0.0000000000
469.8180569961 0.0138740304 0.0000000000
0.0000000000 0.0183300401 0.0000000000
0.0019319188 0.0183300401 0.0000000000
0.0042153099 0.0183300401 0.0000000000
0.0069141165 0.0183300401 0.0000000000
0.0101039148 0.0183300401 0.0000000000
0.0138740304 0.0183300401 0.0000000000
0.0183300401 0.0183300401 0.0000000000
0.0235967279 0.0183300401 0.0000000000
0.0298215799 0.0183300401 0.0000000000
0.0371789141 0.0183300401 0.0000000000
0.0458747621 0.0183300401 0.0000000000
0.0561526385 0.0183300401 0.0000000000
0.0683003605 0.0183300401 0.0000000000
0.0826581076 0.0183300401 0.0000000000
0.0996279478 0.0183300401 0.0000000000
0.1196850970 0.0183300401 0.0000000000
0.1433912268 0.0183300401 0.0000000000
0.1714101933 0.0183300401 0.0000000000
0.2045266272 0.0183300401 0.0000000000
0.2436679067 0.0183300401 0.0000000000
0.2899301270 0.0183300401 0.0000000000
0.3446087948 0.0183300401 0.0000000000
0.4092351076 0.0183300401 0.0000000000
0.4856188323 0.0183300401 0.0000000000
0.5758989850 0.0183300401 0.0000000000
0.6826037316 0.0183300401 0.0000000000
0.8087211847 0.0183300401 0.0000000000
0.9577830822 0.0183300401 0.0000000000
1.1339636879 0.0183300401 0.0000000000
1.3421966859 0.0183300401 0.0000000000
1.5883133417 0.0183300401 0.0000000000
1.8792057979 0.0183300401 0.0000000000
2.2230200790 0.0183300401 0.0000000000
2.6293842089 0.0183300401 0.0000000000
3.1096778301 0.0183300401 0.0000000000
3.6773508740 0.0183300401 0.0000000000
4.3483002070 0.0183300401 0.0000000000
5.1413147993 0.0183300401 0.0000000000
6.0786018829 0.0183300401 0.0000000000
7.1864088333 0.0183300401 0.0000000000
8.4957581893 0.0183300401 0.0000000000
10.0433163946 0.0183300401 0.0000000000
11.8724205891 0.0183300401 0.0000000000
14.0342922024 0.0183300401 0.0000000000
16.5894713369 0.0183300401 0.0000000000
19.6095121058 0.0183300401 0.0000000000
23.1789864031 0.0183300401 0.0000000000
27.3978522181 0.0183300401 0.0000000000
32.3842528143 0.0183300401 0.0000000000
38.2778251620 0.0183300401 0.0000000000
45.2436102705 0.0183300401 0.0000000000
53.4766749237 0.0183300401 0.0000000000
63.2075742451 0.0183300401 0.0000000000
74.7088080614 0.0183300401 0.0000000000
88.3024518686 0.0183300401 0.0000000000
104.3691760922 0.0183300401 0.0000000000
123.3589062142 0.0183300401 0.0000000000
145.8034222894 0.0183300401 0.0000000000
172.3312506791 0.0183300401 0.0000000000
203.6852650281 0.0183300401 0.0000000000
240.7434893711 0.0183300401 0.0000000000
284.5436859317 0.0183300401 0.0000000000
336.3124161601 0.0183300401 0.0000000000
397.4993888200 0.0183300401 0.0000000000
469.8180569961 0.0183300401 0.0000000000
0.0000000000 0.0235967279 0.0000000000
0.0019319188 0.0235967279 0.0000000000
0.0042153099 0.0235967279 0.0000000000
0.0069141165 0.0235967279 0.0000000000
0.0101039148 0.0235967279 0.0000000000
0.0138740304 0.0235967279 0.0000000000
0.0183300401 0.0235967279 0.0000000000
0.0235967279 0.0235967279 0.0000000000
0.0298215799 0.0235967279 0.0000000000
0.0371789141 0.0235967279 0.0000000000
0.0458747621 0.0235967279 0.0000000000
0.0561526385 0.0235967279 0.0000000000
0.0683003605 0.0235967279 0.0000000000
0.0826581076 0.0235967279 0.0000000000
0.0996279478 0.0235967279 0.0000000000
0.1196850970 0.0235967279 0.0000000000
0.1433912268 0.0235967279 0.0000000000
0.1714101933 0.0235967279 0.0000000000
0.2045266272 0.0235967279 0.0000000000
0.2436679067 0.0235967279 0.0000000000
0.2899301270 0.0235967279 0.0000000000
0.3446087948 0.0235967279 0.0000000000
0.4092351076 0.0235967279 0.0000000000
0.4856188323 0.0235967279 0.0000000000
0.5758989850 0.0235967279 0.0000000000
0.6826037316 0.0235967279 0.0000000000
0.8087211847 0.0235967279 0.0000000000
0.9577830822 0.0235967279 0.0000000000
1.1339636879 0.0235967279 0.0000000000
1.3421966859 0.0235967279 0.0000000000
1.5883133417 0.0235967279 0.0000000000
1.8792057979 0.0235967279 0.0000000000
2.2230200790 0.0235967279 0.0000000000
2.6293842089 0.0235967279 0.0000000000
3.1096778301 0.0235967279 0.0000000000
3.6773508740 0.0235967279 0.0000000000
4.3483002070 0.0235967279 0.0000000000
5.1413147993 0.0235967279 0.0000000000
6.0786018829 0.0235967279 0.0000000000
7.1864088333 0.0235967279 0.0000000000
8.4957581893 0.0235967279 0.0000000000
10.0433163946 0.0235967279 0.0000000000
11.8724205891 0.0235967279 0.0000000000
14.0342922024 0.0235967279 0.0000000000
16.5894713369 0.0235967279 0.0000000000
19.6095121058 0.0235967279 0.0000000000
23.1789864031 0.0235967279 0.0000000000
27.3978522181 0.0235967279 0.0000000000
32.3842528143 0.0235967279 0.0000000000
38.2778251620 0.0235967279 0.0000000000
45.2436102705 0.0235967279 0.0000000000
53.4766749237 0.0235967279 0.0000000000
63.2075742451 0.0235967279 0.0000000000
74.7088080614 0.0235967279 0.0000000000
88.3024518686 0.0235967279 0.0000000000
104.3691760922 0.0235967279 0.0000000000
123.3589062142 0.0235967279 0.0000000000
145.8034222894 0.0235967279 0.0000000000
172.3312506791 0.0235967279 0.0000000000
203.6852650281 0.0235967279 0.0000000000
240.7434893711 0.0235967279 0.0000000000
284.5436859317 0.0235967279 0.0000000000
336.3124161601 0.0235967279 0.0000000000
397.4993888200 0.0235967279 0.0000000000
469.8180569961 0.0235967279 0.0000000000
0.0000000000 0.0298215799 0.0000000000
0.0019319188 0.0298215799 0.0000000000
0.0042153099 0.0298215799 0.0000000000
0.0069141165 0.0298215799 0.0000000000
0.0101039148 0.0298215799 0.0000000000
0.0138740304 0.0298215799 0.0000000000
0.0183300401 0.0298215799 0.0000000000
0.0235967279 0.0298215799 0.0000000000
0.0298215799 0.0298215799 0.0000000000
0.0371789141 0.0298215799 0.0000000000
0.0458747621 0.0298215799 0.0000000000
0.0561526385 0.0298215799 0.0000000000
0.0683003605 0.0298215799 0.0000000000
0.0826581076 0.0298215799 0.0000000000
0.0996279478 0.0298215799 0.0000000000
0.1196850970 0.0298215799 0.0000000000
0.1433912268 0.0298215799 0.0000000000
0.1714101933 0.0298215799 0.0000000000
0.2045266272 0.0298215799 0.0000000000
0.2436679067 0.0298215799 0.0000000000
0.2899301270 0.0298215799 0.0000000000
0.3446087948 0.0298215799 0.0000000000
0.4092351076 0.0298215799 0.0000000000
0.4856188323 0.0298215799 0.0000000000
0.5758989850 0.0298215799 0.0000000000
0.6826037316 0.0298215799 0.0000000000
0.8087211847 0.0298215799 0.0000000000
0.9577830822 0.0298215799 0.0000000000
1.1339636879 0.0298215799 0.0000000000
1.3421966859 0.0298215799 0.0000000000
1.5883133417 0.0298215799 0.0000000000
1.8792057979 0.0298215799 0.0000000000
2.2230200790 0.0298215799 0.0000000000
2.6293842089 0.0298215799 0.0000000000
3.1096778301 0.0298215799 0.0000000000
3.6773508740 0.0298215799 0.0000000000
4.3483002070 0.0298215799 0.0000000000
5.1413147993 0.0298215799 0.0000000000
6.0786018829 0.0298215799 0.0000000000
7.1864088333 0.0298215799 0.0000000000
8.4957581893 0.0298215799 0.0000000000
10.0433163946 0.0298215799 0.0000000000
11.8724205891 0.0298215799 0.0000000000
14.0342922024 0.0298215799 0.0000000000
16.5894713369 0.0298215799 0.0000000000
19.6095121058 0.0298215799 0.0000000000
23.1789864031 0.0298215799 0.0000000000
27.3978522181 0.0298215799 0.0000000000
32.3842528143 0.0298215799 0.0000000000
38.2778251620 0.0298215799 0.0000000000
45.2436102705 0.0298215799 0.0000000000
53.4766749237 0.0298215799 0.0000000000
63.2075742451 0.0298215799 0.0000000000
74.7088080614 0.0298215799 0.0000000000
88.3024518686 0.0298215799 0.0000000000
104.3691760922 0.0298215799 0.0000000000
123.3589062142 0.0298215799 0.0000000000
145.8034222894 0.0298215799 0.0000000000
172.3312506791 0.0298215799 0.0000000000
203.6852650281 0.0298215799 0.0000000000
240.7434893711 0.0298215799 0.0000000000
284.5436859317 0.0298215799 0.0000000000
336.3124161601 0.0298215799 0.0000000000
397.4993888200 0.0298215799 0.0000000000
469.8180569961 0.0298215799 0.0000000000
0.0000000000 0.0371789141 0.0000000000
0.0019319188 0.0371789141 0.0000000000
0.0042153099 0.0371789141 0.0000000000
0.0069141165 0.0371789141 0.0000000000
0.0101039148 0.0371789141 0.0000000000
0.0138740304 0.0371789141 0.0000000000
0.0183300401 0.0371789141 0.0000000000
0.0235967279 0.0371789141 0.0000000000
0.0298215799 0.0371789141 0.0000000000
0.0371789141 0.0371789141 0.0000000000
0.0458747621 0.0371789141 0.0000000000
0.0561526385 0.0371789141 0.0000000000
0.0683003605 0.0371789141 0.0000000000
0.0826581076 0.0371789141 0.0000000000
0.0996279478 0.0371789141 0.0000000000
0.1196850970 0.0371789141 0.0000000000
